status/24/battery-low-charging-symbolic.svg

<?xml version="1.0" encoding="UTF-8" standalone="no"?>
<svg
   xmlns:dc="http://purl.org/dc/elements/1.1/"
   xmlns:cc="http://creativecommons.org/ns#"
   xmlns:rdf="http://www.w3.org/1999/02/22-rdf-syntax-ns#"
   xmlns:svg="http://www.w3.org/2000/svg"
   xmlns="http://www.w3.org/2000/svg"
   id="svg3004"
   height="24"
   width="24"
   version="1.1">
  <defs
     id="defs3006" />
  <metadata
     id="metadata3009">
    <rdf:RDF>
      <cc:Work
         rdf:about="">
        <dc:format>image/svg+xml</dc:format>
        <dc:type
           rdf:resource="http://purl.org/dc/dcmitype/StillImage" />
        <dc:title />
      </cc:Work>
    </rdf:RDF>
  </metadata>
  <path
     id="rect4347"
     d="m 5,7 c -0.554,0 -1,2.23 -1,5 0,2.77 0.446,5 1,5 h 14 c 0.411065,0 0.759994,-1.2349 0.914062,-3 h 1.583985 C 21.775811,14 22,13.108 22,12 22,10.892 21.775811,10 21.498047,10 H 19.914062 C 19.759994,8.2349003 19.411065,7 19,7 Z M 5.5117188,8 H 18.488281 C 18.771711,8 19,9.784 19,12 c 0,2.216 -0.228289,4 -0.511719,4 H 5.5117188 C 5.2282889,16 5,14.216 5,12 5,9.784 5.2282889,8 5.5117188,8 Z M 11,9 v 3 l -4,-2 6,5 v -3 l 4,2 z m 8.958984,2 h 0.931641 C 20.951097,11 21,11.446 21,12 c 0,0.554 -0.0489,1 -0.109375,1 H 19.958984 C 19.972945,12.666049 20,12.355284 20,12 c 0,-0.355284 -0.02706,-0.666049 -0.04102,-1 z"
     style="color:#bebebe;clip-rule:nonzero;display:inline;overflow:visible;visibility:visible;opacity:1;isolation:auto;mix-blend-mode:normal;color-interpolation:sRGB;color-interpolation-filters:linearRGB;solid-color:#000000;solid-opacity:1;fill:#bebebe;fill-opacity:1;fill-rule:nonzero;stroke:none;stroke-width:1;stroke-linecap:butt;stroke-linejoin:miter;stroke-miterlimit:4;stroke-dasharray:none;stroke-dashoffset:0;stroke-opacity:1;marker:none;color-rendering:auto;image-rendering:auto;shape-rendering:auto;text-rendering:auto;enable-background:accumulate" />
  <path
     id="rect4151-6-5"
     d="M 6.2539062,9 C 6.1137652,9 6,10.338 6,12 c 0,1.662 0.1137652,3 0.2539062,3 h 5.4921878 c 0.0049,0 0.0088,-0.02992 0.01367,-0.0332 L 7,11 v -1 l 4,2 V 9 Z M 11,9 11.910156,9.7597656 C 11.865782,9.3024394 11.809768,9 11.746094,9 Z"
     style="color:#bebebe;clip-rule:nonzero;display:inline;overflow:visible;visibility:visible;opacity:0.3;isolation:auto;mix-blend-mode:normal;color-interpolation:sRGB;color-interpolation-filters:linearRGB;solid-color:#000000;solid-opacity:1;fill:#bebebe;fill-opacity:1;fill-rule:nonzero;stroke:none;stroke-width:1;stroke-linecap:butt;stroke-linejoin:miter;stroke-miterlimit:4;stroke-dasharray:none;stroke-dashoffset:0;stroke-opacity:1;marker:none;color-rendering:auto;image-rendering:auto;shape-rendering:auto;text-rendering:auto;enable-background:accumulate" />
</svg>

<?xml version="1.0" encoding="UTF-8" standalone="no"?>
<svg
   xmlns:dc="http://purl.org/dc/elements/1.1/"
   xmlns:cc="http://creativecommons.org/ns#"
   xmlns:rdf="http://www.w3.org/1999/02/22-rdf-syntax-ns#"
   xmlns:svg="http://www.w3.org/2000/svg"
   xmlns="http://www.w3.org/2000/svg"
   version="1.1"
   width="24"
   height="24"
   id="svg3004">
  <defs
     id="defs3006" />
  <metadata
     id="metadata3009">
    <rdf:RDF>
      <cc:Work
         rdf:about="">
        <dc:format>image/svg+xml</dc:format>
        <dc:type
           rdf:resource="http://purl.org/dc/dcmitype/StillImage" />
        <dc:title />
      </cc:Work>
    </rdf:RDF>
  </metadata>
  <path
     id="path3343"
     d="M 5 7 C 4.446 7 4 9.23 4 12 C 4 14.77 4.446 17 5 17 L 19 17 C 19.411065 17 19.759994 15.7651 19.914062 14 L 21.498047 14 C 21.775811 14 22 13.108 22 12 C 22 10.892 21.775811 10 21.498047 10 L 19.914062 10 C 19.759994 8.2349003 19.411065 7 19 7 L 5 7 z M 5.5117188 8 L 12 8 L 18.488281 8 C 18.771711 8 19 9.784 19 12 C 19 14.216 18.771711 16 18.488281 16 L 12 16 L 5.5117188 16 C 5.2282889 16 5 14.216 5 12 C 5 9.784 5.2282889 8 5.5117188 8 z M 12 16 L 15 11 L 12 11 L 12 8 L 9 13 L 12 13 L 12 16 z M 19.958984 11 L 20.890625 11 C 20.951097 11 21 11.446 21 12 C 21 12.554 20.9511 13 20.890625 13 L 19.958984 13 C 19.972945 12.666049 20 12.355284 20 12 C 20 11.644716 19.972944 11.333951 19.958984 11 z "
     style="color:#bebebe;clip-rule:nonzero;display:inline;overflow:visible;visibility:visible;opacity:1;isolation:auto;mix-blend-mode:normal;color-interpolation:sRGB;color-interpolation-filters:linearRGB;solid-color:#000000;solid-opacity:1;fill:#bebebe;fill-opacity:1;fill-rule:nonzero;stroke:none;stroke-width:1;stroke-linecap:butt;stroke-linejoin:miter;stroke-miterlimit:4;stroke-dasharray:none;stroke-dashoffset:0;stroke-opacity:1;marker:none;color-rendering:auto;image-rendering:auto;shape-rendering:auto;text-rendering:auto;enable-background:accumulate" />
  <path
     style="color:#bebebe;clip-rule:nonzero;display:inline;overflow:visible;visibility:visible;opacity:0.3;isolation:auto;mix-blend-mode:normal;color-interpolation:sRGB;color-interpolation-filters:linearRGB;solid-color:#000000;solid-opacity:1;fill:#bebebe;fill-opacity:1;fill-rule:nonzero;stroke:none;stroke-width:1;stroke-linecap:butt;stroke-linejoin:miter;stroke-miterlimit:4;stroke-dasharray:none;stroke-dashoffset:0;stroke-opacity:1;marker:none;color-rendering:auto;image-rendering:auto;shape-rendering:auto;text-rendering:auto;enable-background:accumulate"
     d="M 6.2539062 9 C 6.1137652 9 6 10.338 6 12 C 6 13.662 6.1137654 15 6.2539062 15 L 10.998047 15 L 10.998047 14.001953 L 9 14.001953 A 1.001376 1.001376 0 0 1 8.140625 12.484375 L 10.230469 9 L 6.2539062 9 z "
     id="rect4151-6-5" />
</svg>
